!!!COM: Scriabin, Alexander
!!!OTL@@FR: Mazurka
!!!OTL@@EN:
!!!OPR@@FR: 10 Mazurkas for piano
!!!OPR@@EN:
!!!OPS: 3
!!!ONM: 9
!!!ODT: 1888–1889
!!!AGN: Mazurka
**kern	**kern	**dynam
*staff2	*staff1	*staff1/2
*Ipiano	*Ipiano	*
*clefF4	*clefG2	*
*k[f#c#g#d#a#]	*k[f#c#g#d#a#]	*
*g#:	*g#:	*
*M3/4	*M3/4	*
*	*^	*
4G# 4g#	4dd#	4f# 4b	.
=1	=1	=1	=1
2c# 2g#	4ff#	2e 2b	.
.	8eeL	.	.
.	8dd#	.	.
4F# 4f#	8cc#	4e 4a#	.
.	8dd#J	.	.
=2	=2	=2	=2
2B 2f#	8.bL	2d#	.
.	16a#Jk	.	.
.	4b	.	.
4B 4g#	4b	4d#	.
=3	=3	=3	=3
2A# 2g#	4dd#	2e 2a#	.
.	8cc#L	.	.
.	8b	.	.
4D# 4d#	8a#	4c# 4f##X	.
.	8bJ	.	.
=4	=4	=4	=4
2G# 2d#	4g#	2B	.
.	4d#	.	.
4BBB 4BB	[4G# [4g#	4d#	.
=5	=5	=5	=5
2EE 2E	8.G#L] 8.g#]	2c##X	.
.	16F##XJk 16f##X	.	.
.	4G# 4g#	.	.
4BBB 4BB	[4G# [4g#	4d#	.
=6	=6	=6	=6
*^	*	*	*
2EE 2E	2rEE	8.G#L] 8.g#]	2c##X	.
.	.	16F##XJk 16f##X	.	.
.	.	4G# 4g#	.	.
4A#	4E	4a#	4c## 4g#	.
=7	=7	=7	=7	=7
8BL	2.D#	8bL	2.d# 2.g#	.
8c#XJ	.	8cc#XJ	.	.
4d#	.	4dd#	.	.
4G#	.	4g#	.	.
=8	=8	=8	=8	=8
4B	2D#	4b	2d# 2f##X	.
4A#	.	4a#	.	.
4G# 4g#	4rEE	4dd#	4f#X 4b	.
*v	*v	*	*	*
=9	=9	=9	=9
2c# 2g#	4ff#	2e 2b	.
.	8eeL	.	.
.	8dd#	.	.
4F# 4f#	8cc#	4e 4a#	.
.	8dd#J	.	.
=10	=10	=10	=10
2B 2f#	8.bL	2d#	.
.	16a#Jk	.	.
.	4b	.	.
4B 4g#	4b	4d#	.
=11	=11	=11	=11
2A# 2g#	4dd#	2e 2a#	.
.	8cc#L	.	.
.	8b	.	.
4D# 4d#	8a#	4c# 4f##X	.
.	8bJ	.	.
=12	=12	=12	=12
2G# 2d#	4g#	2B	.
.	4d#	.	.
4BBB 4BB	[4G# [4g#	4d#	.
=13	=13	=13	=13
2EE 2E	8.G#L] 8.g#]	2c##X	.
.	16F##XJk 16f##X	.	.
.	4G# 4g#	.	.
4DD# 4D#	[4B [4b	4f#X	.
=14	=14	=14	=14
*^	*	*	*
2GG# 2G#	2rEE	8.BL] 8.b]	2e	.
.	.	16A#Jk 16a#	.	.
.	.	4B 4b	.	.
4c#	4Gn	4cc#	4e#X 4b	.
=15	=15	=15	=15	=15
8.d#L	2F#	8.dd#L	2f# 2b	.
16enJk	.	16eenJk	.	.
4f#	.	4ff#	.	.
[4c#	[4F#	[4a#	[4e [4f#	.
=16	=16	=16	=16	=16
4c#]	2BB 2F#]	4a#]	4e] 4f#_	.
4B	.	4b	4d# 4f#]	.
4F#	[4BB	4f#	[4d#	.
=17	=17	=17	=17	=17
8.G#L	2BB]	8.g#L	2d#]	.
16A#Jk	.	16a#Jk	.	.
4B	.	4b	.	.
4F#	[4BB [4F#	4f#	4d#	.
=18	=18	=18	=18	=18
4G#	4BB] 4F#]	4dd#	4rc	.
2A#	2BB 2F#	2cc#	2e 2f#	.
*v	*v	*	*	*
=19	=19	=19	=19
*	*	*^	*
4r	4ff#	4rc	4r	.
4G#	4b	[2e	4r	.
[4Gn	4cc#	.	[4a#/	.
=20	=20	=20	=20	=20
*^	*	*	*	*
4G]	2rEE	4cc##X	4e]	4a#/]	.
4BB 4F#	.	4dd#	4d# 4b	4r	.
4A#	[4D#	4a#	[4f##X	4r	.
*	*	*	*v	*v	*
=21	=21	=21	=21	=21
8.B#XL	2D#]	8.b#XL	2f##]	.
16c##XJk	.	16cc##XJk	.	.
4d#	.	4dd#	.	.
4A#	[4D# [4A#	4a#	4f##X	.
=22	=22	=22	=22	=22
4B#X	4D#] 4A#]	4ff##X	4rc	.
2c##X	2D# 2A#	2ee#X	2g# 2a#	.
*v	*v	*	*	*
=23	=23	=23	=23
4r	4aa#	4rc	.
4B#X	4dd#	2g#	.
4Bn	4cc##X 4ee#X	.	.
=24	=24	=24	=24
4D# 4A#	8.ff##XL	2f##X 2dd#	.
.	16dd#Jk	.	.
*clefG2	*	*	*
4c#X 4f##X 4dd#	4ddd#	.	.
*clefF4	*	*	*
4G# 4g#	4dd#	4f#X 4b	.
=25	=25	=25	=25
2c# 2g#	4ff#	2e 2b	.
.	8eeL	.	.
.	8dd#	.	.
4F# 4f#	8cc#	4e 4a#	.
.	8dd#J	.	.
=26	=26	=26	=26
2B 2f#	8.bL	2d#	.
.	16a#Jk	.	.
.	4b	.	.
4B 4g#	4b	4d#	.
=27	=27	=27	=27
2A# 2g#	4dd#	2e 2a#	.
.	8cc#L	.	.
.	8b	.	.
4D# 4d#	8a#	4c# 4f##X	.
.	8bJ	.	.
=28	=28	=28	=28
2G# 2d#	4g#	2B	.
.	4d#	.	.
4BBB 4BB	[4G# [4g#	4d#	.
=29	=29	=29	=29
2EE 2E	8.G#L] 8.g#]	2c##X	.
.	16F##XJk 16f##X	.	.
.	4G# 4g#	.	.
4BBB 4BB	[4G# [4g#	4d#	.
=30	=30	=30	=30
*^	*	*	*
2EE 2E	2rEE	8.G#L] 8.g#]	2c##X	.
.	.	16F##XJk 16f##X	.	.
.	.	4G# 4g#	.	.
4A#	4E	4a#	4c## 4g#	.
=31	=31	=31	=31	=31
8BL	2D#	8bL	2d# 2g#	.
8c#XJ	.	8cc#XJ	.	.
4d#	.	4dd#	.	.
[4A#	[4D#	[4f##X	[4c#X [4d#	.
=32	=32	=32	=32	=32
4A#]	2GG# 2D#]	4f##]	4c#] 4d#_	.
4G#	.	4g#	4B 4d#]	.
4FF# 4BB 4D# 4An	4rEE	4B 4d# 4an 4b	4rc	.
*v	*v	*	*	*
*	*v	*v	*
=33||	=33||	=33||
*k[f#c#g#d#]	*k[f#c#g#d#]	*
*	*^	*
4EE 4E	4raa	4rc	.
4.BB 4.B	[2g#	4G# 4e	.
.	.	4G# 4e	.
8AA#X 8A#X	.	.	.
=34	=34	=34	=34
4AA#X 4A#X	2g#]	4G# 4e	.
4.E 4.e	.	4G#	.
.	4G# 4e 4g#	4rc	.
8D# 8d#	.	.	.
*	*v	*v	*
=35	=35	=35
4D# 4d#	4G# 4e 4g#	.
2C# 2c#	4A#X 4e 4g# 4a#X	.
.	4B 4e 4g# 4b	.
=36	=36	=36
4GGn 4Gn	4B#X 4e 4a#X 4b#X	.
2FF# 2F#	4c# 4e 4a# 4cc#	.
.	4c##X 4e 4a# 4cc##X	.
=37	=37	=37
*	*^	*
4BBB 4BB	4raa	4rc	.
4.F# 4.f#	[2dd#	4d# 4b	.
.	.	4d# 4b	.
8E#X 8e#X	.	.	.
=38	=38	=38	=38
4E#X 4e#X	2dd#]	4d# 4b	.
4.B 4.b	.	4d#	.
.	4d# 4b 4dd#	4rc	.
8A#X 8a#X	.	.	.
*	*v	*v	*
=39	=39	=39
4A#X 4a#X	4d# 4b 4dd#	.
2G# 2g#	4e#X 4b 4dd# 4ee#X	.
.	4f# 4b 4dd# 4ff#	.
=40	=40	=40
4Dn 4dn	4f##X 4b 4ee#X 4ff##X	.
2C# 2c#	4g# 4b 4ee# 4gg#	.
.	4g##X 4b 4ee# 4gg##X	.
=41	=41	=41
*	*^	*
4FFF# 4FF#	4raa	4rc	.
4.C# 4.c#	[2aa#X	4a#X 4ff#	.
.	.	4a# 4ff#	.
8Cn 8cn	.	.	.
=42	=42	=42	=42
4Cn 4cn	4aa#]	4a#X 4ff#	.
*clefG2	*	*	*
2cn 2ccn	2bb-X	4b-X 4ffn	.
.	.	4b- 4ee	.
*clefF4	*	*	*
=43	=43	=43	=43
4FFFn 4FFn	4raa	4rc	.
4.D-X 4.d-X	[2bb-X	4b-X 4ee	.
.	.	4b- 4ee	.
8Cn 8cn	.	.	.
=44	=44	=44	=44
4Cn 4cn	4bb-]	4b-X 4ee	.
*clefG2	*	*	*
2cn 2ccn	2aa	4a 4ffn	.
.	.	4a 4ff	.
*clefF4	*	*	*
=45	=45	=45	=45
4FFFn 4FFn	4raa	4rc	.
2Cn 2cn	2aa	4a 4ffn	.
.	.	4a 4ff	.
=46	=46	=46	=46
4FFFn 4FFn	4raa	4rc	.
2Cn 2cn	2aa	4a 4ee	.
.	.	4a 4ee	.
=47	=47	=47	=47
4FFF#X 4FF#X	4raa	4rc	.
2BB 2B	2aa	4a 4dd#	.
.	.	4a 4dd#	.
=48	=48	=48	=48
4BBBB 4BBB	4raa	4rc	.
4BB 4F# 4d#	2bb	4a 4dd#	.
4FF# 4BB 4D# 4A	.	4B 4d# 4a 4b	.
=49	=49	=49	=49
4EE 4E	4raa	4rc	.
4.BB 4.B	[2g#	4G# 4e	.
.	.	4G# 4e	.
8AA#X 8A#X	.	.	.
=50	=50	=50	=50
4AA#X 4A#X	2g#]	4G# 4e	.
4.E 4.e	.	4G#	.
.	4G# 4e 4g#	4rc	.
8D# 8d#	.	.	.
*	*v	*v	*
=51	=51	=51
4D# 4d#	4G# 4e 4g#	.
2C# 2c#	4A#X 4e 4g# 4a#X	.
.	4B 4e 4g# 4b	.
=52	=52	=52
4GGn 4Gn	4B#X 4e 4a#X 4b#X	.
2FF# 2F#	4c# 4e 4a# 4cc#	.
.	4c##X 4e 4a# 4cc##X	.
=53	=53	=53
*	*^	*
4BBB 4BB	4raa	4rc	.
4.F# 4.f#	[2dd#	4d# 4b	.
.	.	4d# 4b	.
8E#X 8e#X	.	.	.
=54	=54	=54	=54
4E#X 4e#X	2dd#]	4d# 4b	.
4.B 4.b	.	4d#	.
.	4d# 4b 4dd#	4rc	.
8A#X 8a#X	.	.	.
*	*v	*v	*
=55	=55	=55
4A#X 4a#X	4d# 4b 4dd#	.
2G# 2g#	4e#X 4b 4dd# 4ee#X	.
.	4f# 4b 4dd# 4ff#	.
=56	=56	=56
4Dn 4dn	4f##X 4b 4ee#X 4ff##X	.
2C# 2c#	4g# 4b 4ee# 4gg#	.
.	4g##X 4b 4ee# 4gg##X	.
=57	=57	=57
*	*^	*
4FFF# 4FF#	4raa	4rc	.
4.C# 4.c#	[2aa#X	4a#X 4ff#	.
.	.	4a# 4ff#	.
8Cn 8cn	.	.	.
=58	=58	=58	=58
4Cn 4cn	4aa#]	4a#X 4ff#	.
*clefG2	*	*	*
2cn 2ccn	2bb-X	4b-X 4ffn	.
.	.	4b- 4ee	.
*clefF4	*	*	*
=59	=59	=59	=59
4FFFn 4FFn	4raa	4rc	.
4.D-X 4.d-X	[2bb-X	4b-X 4ee	.
.	.	4b- 4ee	.
8Cn 8cn	.	.	.
=60	=60	=60	=60
4Cn 4cn	4bb-]	4b-X 4ee	.
*clefG2	*	*	*
2cn 2ccn	2aa	4a 4ffn	.
.	.	4a 4ff	.
*clefF4	*	*	*
=61	=61	=61	=61
4FFFn 4FFn	4raa	4rc	.
4.Cn 4.cn	[2aa	4a 4ffn	.
.	.	4a 4ff	.
8BB 8B	.	.	.
=62	=62	=62	=62
4BB 4B	4aa]	4a 4ffn	.
2B 2b	2aa	4a 4ee	.
.	.	4a 4dd#	.
=63	=63	=63	=63
4EEE 4EE	4raa	4rc	.
4.Cn 4.cn	[2aa	4a 4dd#	.
.	.	4a 4dd#	.
8BB 8B	.	.	.
=64	=64	=64	=64
4BB 4B	4aa]	4a 4dd#	.
2B 2b	2gg#	4g# 4ee	.
.	.	4g# 4ee	.
=65	=65	=65	=65
4EEE 4EE	4raa	4rc	.
2BB 2B	2gg#	4g# 4ee	.
.	.	4g# 4ee	.
=66	=66	=66	=66
4EEE 4EE	4raa	4rc	.
2BB 2B	2gg#	4g# 4dd#	.
.	.	4g# 4dd#	.
=67	=67	=67	=67
4EEE 4EE	4raa	4rc	.
2AA#X 2A#X	2gg#	4g# 4cc##X	.
.	.	4g# 4cc##	.
=68	=68	=68	=68
*^	*	*	*
4rc	4rEE	4raa	4rc	.
4rc	4rEE	4raa	4rc	.
4B 4d#	[4D#	4dd#	4g#	.
*v	*v	*	*	*
*	*v	*v	*
=69||	=69||	=69||
*k[f#c#g#d#a#]	*k[f#c#g#d#a#]	*
*^	*^	*
2c# 2e	2D#]	4ff#	2g#	.
.	.	8eeL	.	.
.	.	8dd#	.	.
4A# 4e	[4D#	8cc#	4f##X	.
.	.	8dd#J	.	.
=70	=70	=70	=70	=70
2B 2e	2D#]	8.bL	2g#	.
.	.	16a#Jk	.	.
.	.	4b	.	.
4B 4d#	[4D#	4b	4g#	.
=71	=71	=71	=71	=71
2A# 2e	2D#]	4dd#	2g#	.
.	.	8cc#L	.	.
.	.	8b	.	.
4D# 4d#	4rEE	8.a#	4c# 4f##X	.
.	.	16bJk	.	.
*v	*v	*	*	*
=72	=72	=72	=72
2G# 2d#	4g#	2B	.
.	4d#	.	.
4BBB 4BB	[4G# [4g#	4d#	.
=73	=73	=73	=73
2EE 2E	8.G#L] 8.g#]	2c##X	.
.	16F##XJk 16f##X	.	.
.	4G# 4g#	.	.
4BBB 4BB	[4G# [4g#	4d#	.
=74	=74	=74	=74
*^	*	*	*
2EE 2E	2rEE	8.G#L] 8.g#]	2c##X	.
.	.	16F##XJk 16f##X	.	.
.	.	4G# 4g#	.	.
4A#	4E	4a#	4c## 4g#	.
=75	=75	=75	=75	=75
8BL	2.D#	8bL	2.d# 2.g#	.
8c#XJ	.	8cc#XJ	.	.
4d#	.	4dd#	.	.
4G#	.	4g#	.	.
=76	=76	=76	=76	=76
4B	2D#	4b	2d# 2f##X	.
4A#	.	4a#	.	.
4G# 4g#	4rEE	4dd#	4f#X 4b	.
*v	*v	*	*	*
=77	=77	=77	=77
2c# 2g#	4ff#	2e 2b	.
.	8eeL	.	.
.	8dd#	.	.
4F# 4f#	8cc#	4e 4a#	.
.	8dd#J	.	.
=78	=78	=78	=78
2B 2f#	8.bL	2d#	.
.	16a#Jk	.	.
.	4b	.	.
4B 4g#	4b	4d#	.
=79	=79	=79	=79
2A# 2g#	4dd#	2e 2a#	.
.	8cc#L	.	.
.	8b	.	.
4D# 4d#	8a#	4c# 4f##X	.
.	8bJ	.	.
=80	=80	=80	=80
2G# 2d#	4g#	2B	.
.	4d#	.	.
4BBB 4BB	[4G# [4g#	4d#	.
=81	=81	=81	=81
2EE 2E	8.G#L] 8.g#]	2c##X	.
.	16F##XJk 16f##X	.	.
.	4G# 4g#	.	.
4DD# 4D#	[4B [4b	4f#X	.
=82	=82	=82	=82
*^	*	*	*
2GG# 2G#	2rEE	8.BL] 8.b]	2e	.
.	.	16A#Jk 16a#	.	.
.	.	4B 4b	.	.
4c#	4Gn	4cc#	4e#X 4b	.
=83	=83	=83	=83	=83
8.d#L	2F#	8.dd#L	2f# 2b	.
16enJk	.	16eenJk	.	.
4f#	.	4ff#	.	.
[4c#	[4F#	[4a#	[4e [4f#	.
=84	=84	=84	=84	=84
4c#]	2BB 2F#]	4a#]	4e] 4f#_	.
4B	.	4b	4d# 4f#]	.
4F#	[4BB	4f#	[4d#	.
=85	=85	=85	=85	=85
8.G#L	2BB]	8.g#L	2d#]	.
16A#Jk	.	16a#Jk	.	.
4B	.	4b	.	.
4F#	[4BB [4F#	4f#	4d#	.
=86	=86	=86	=86	=86
4G#	4BB] 4F#]	4dd#	4rc	.
2A#	2BB 2F#	2cc#	2e 2f#	.
*v	*v	*	*	*
=87	=87	=87	=87
*	*	*^	*
4r	4ff#	4rc	4r	.
4G#	4b	[2e	4r	.
[4Gn	4cc#	.	[4a#/	.
=88	=88	=88	=88	=88
*^	*	*	*	*
4G]	2rEE	4cc##X	4e]	4a#/]	.
4BB 4F#	.	4dd#	4d# 4b	4r	.
4A#	[4D#	4a#	[4f##X	4r	.
*	*	*	*v	*v	*
=89	=89	=89	=89	=89
8.B#XL	2D#]	8.b#XL	2f##]	.
16c##XJk	.	16cc##XJk	.	.
4d#	.	4dd#	.	.
4A#	[4D# [4A#	4a#	4f##X	.
=90	=90	=90	=90	=90
4B#X	4D#] 4A#]	4ff##X	4rc	.
2c##X	2D# 2A#	2ee#X	2g# 2a#	.
*v	*v	*	*	*
=91	=91	=91	=91
4r	4aa#	4rc	.
4B#X	4dd#	2g#	.
4Bn	4cc##X 4ee#X	.	.
=92	=92	=92	=92
4D# 4A#	8.ff##XL	4f##X 4dd#	.
.	16dd#Jk	.	.
*clefG2	*	*	*
4c#X 4f##X 4dd#	4ddd#	4rc	.
*clefF4	*	*	*
4G# 4g#	4dd#	4f#X 4b	.
=93	=93	=93	=93
2c# 2g#	4ff#	2e 2b	.
.	8eeL	.	.
.	8dd#	.	.
4F# 4f#	8cc#	4e 4a#	.
.	8dd#J	.	.
=94	=94	=94	=94
2B 2f#	8.bL	2d#	.
.	16a#Jk	.	.
.	4b	.	.
4B 4g#	4b	4d#	.
=95	=95	=95	=95
2A# 2g#	4dd#	2e 2a#	.
.	8cc#L	.	.
.	8b	.	.
4D# 4d#	8a#	4c# 4f##X	.
.	8bJ	.	.
=96	=96	=96	=96
2G# 2d#	4g#	2B	.
.	4d#	.	.
4BBB 4BB	[4G# [4g#	4d#	.
=97	=97	=97	=97
2EE 2E	8.G#L] 8.g#]	2c##X	.
.	16F##XJk 16f##X	.	.
.	4G# 4g#	.	.
4BBB 4BB	[4G# [4g#	4d#	.
=98	=98	=98	=98
*^	*	*	*
2EE 2E	2rEE	8.G#L] 8.g#]	2c##X	.
.	.	16F##XJk 16f##X	.	.
.	.	4G# 4g#	.	.
4A#	4E	4a#	4c## 4g#	.
=99	=99	=99	=99	=99
8BL	2D#	8bL	2d# 2g#	.
8c#XJ	.	8cc#XJ	.	.
4d#	.	4dd#	.	.
4A#	4D#	4f##X	4c#X 4d#	.
*v	*v	*	*	*
*	*v	*v	*
=100	=100	=100
4r	2.r	.
4r	.	.
4D#	.	.
=101	=101	=101
4F#	2.r	.
8EL	.	.
8D#	.	.
8C#	.	.
8D#J	.	.
=102	=102	=102
8BBL	2.r	.
8AA#J	.	.
4BB	.	.
4BB	.	.
=103	=103	=103
4D#	2.r	.
8C#L	.	.
8BB	.	.
8AA#	.	.
8BBJ	.	.
=104	=104	=104
2.GG#	2.r	.
=105	=105	=105
2.D# 2.B	2.d# 2.g# 2.dd#	.
=106	=106	=106
2.GGG# 2.GG#	2.r	.
==	==	==
*-	*-	*-
!!!system-decoration: {(*)}
!!!ENC: Bryan Jacob Bell
!!!END: November 2021 to April 2022
!!!PED: Günter Philipp
!!!PTL: Ausgewählte Klavierwerke (Edition Peters)
